X:1
T:James Gibb editions
T:O God the Lord, to Thee we raise - Barnby
%%score [ ( 1 2 ) ( 3 4 ) ]
L:1/8
Q:1/4=80
M:4/4
K:Eb
V:1 treble nm="Midi_74"
V:2 treble 
V:3 bass nm="Midi_74"
V:4 bass 
V:1
"^O God the Lord, to Thee we raise""^Joseph Barnby\n(1838-96)""^88. 88. 88. 88. 88" B2 | %1
 e2 B2 c2 BA | G2 F2 B2 || c2 | d2 e2 f2 e2 | d2 c2 B2 || B2 | e2 B2 c2 BA | G2 F2 E2 || %9
[M:4/4] G2 | F2 e2 d2 cB | c2 c2 B2 || D2 | E2 F2"^1" D2 E2 | A2 GF G2 || E2 | _d3 d c2 B2 | %17
 A2 G2 F2 || G2 | A2 B2 G2 A2 | _d2 cB c2 || c2 | !courtesy!=d2 e2 A2 G2 | F2 F2 E4 || G4 E3 F | %25
 G6 G2 | c4 e4 | e6 || c2 | B4 G4 | (F2 E2) (F2 G2) | F6 E2 | E6 || A4 G4 |] %34
V:2
 B2- | E2 E2 E2 E2 | E2 D2 E2 || E2 | A2 G2 F2 G2 | F3 E D2 || D2 | E2 E2 E2 F2 | D2 D2 C2 || %9
[M:4/4] E2 | E2 C2 D2 D2 | G2 FE D2 || B,2 | C2 C2 B,2 B,2 | C2 D2 E2 || G2 | F2 E2 E2 E2 | %17
 ED E2 D2 || E2 | F2 F2 E2 E2 | F2 E2 E2 || AG | F2 E2 F2 E2 | FE D2 E4 || G4 E3 F | G6 D2 | %26
 G4 G4 | A6 || D2 | E4 D4 | C4 C4 | D6 E2 | E6 || E4 E4 |] %34
V:3
 B,2 | B,2 G,2 A,2 C2 | B,2 B,2 B,2 || A,2 | B,2 B,2 B,2 B,2 | B,2 =A,2 B,2 || B,2 | %7
 B,2 G,2 A,2 C2 | =B,2 G,2 G,2 ||[M:4/4] G,2 | C2 C2 B,2 B,2 | B,2 =A,2 B,2 || F,2 | %13
 G,2 F,2 F,2 G,2 | A,2 B,2 B,2 || G,2 | A,2 B,2 A,2 G,2 | A,2 B,C D2 || B,2 | C2 B,2 B,2 A,2 | %20
 A,2 G,2 A,2 || E2 | DC B,2 B,2 B,2 | C2 B,A, G,4 || G,4 E,3 F, | G,6 =B,2 | C4 C4 | C6 || A,2 | %29
 B,4 B,4 | (A,2 G,2) (A,2 B,2) | A,6 G,2 | G,6 || C4 B,4 |] %34
V:4
 B,2 | G,2 E,2 A,2 F,2 | B,2 A,2 G,2 || A,2 | F,2 E,2 D,2 E,2 | F,2 F,2 B,,2 || B,2 | %7
 G,2 E,2 A,2 F,2 | G,2 =B,,2 C,2 ||[M:4/4] B,,2 | =A,,2 G,,A,, B,,2 G,2 | E,2 F,2 B,,2 || B,,2 | %13
 B,,2 A,,2 A,2 G,2 | F,2 B,,2 E,2 || E,2 | F,2 G,2 A,2 E,2 | F,2 G,A, B,2 || E,2 | %19
 E,2 _D,2 D,2 C,2 | B,,2 E,2 A,,2 || A,2 | A,2 G,2 D,2 E,2 | A,,2 B,,2 E,4 || G,4 E,3 F, | %25
 G,6 G,2 | E,4 C,4 | A,,6 || F,,2 | G,,4 B,,4 | C,4 F,,4 | B,,6 E,2 | E,6 || A,,4 E,4 |] %34

